svgs/solid/user-doctor-message.svg

<svg xmlns="http://www.w3.org/2000/svg" viewBox="0 0 640 512"><!--! Font Awesome Pro 6.2.0 by @fontawesome - https://fontawesome.com License - https://fontawesome.com/license (Commercial License) Copyright 2022 Fonticons, Inc. --><path d="M352 128c0 70.7-57.3 128-128 128s-128-57.3-128-128S153.3 0 224 0s128 57.3 128 128zM0 482.3c0-81 54-149.4 128-171.1v59.1c-23.1 6.9-40 28.3-40 53.7c0 30.9 25.1 56 56 56s56-25.1 56-56c0-25.4-16.9-46.8-40-53.7V304.9c6-.6 12.1-.9 18.3-.9h91.4c6.2 0 12.3 .3 18.3 .9V362c-27.6 7.1-48 32.2-48 62v40c0 8.8 7.2 16 16 16h16c8.8 0 16-7.2 16-16s-7.2-16-16-16V424c0-17.7 14.3-32 32-32s32 14.3 32 32v24c-8.8 0-16 7.2-16 16s7.2 16 16 16h16c8.8 0 16-7.2 16-16V424c0-29.8-20.4-54.9-48-62V311.2c74 21.7 128 90.1 128 171.1c0 16.4-13.3 29.7-29.7 29.7H29.7C13.3 512 0 498.7 0 482.3zM168 424c0 13.3-10.7 24-24 24s-24-10.7-24-24s10.7-24 24-24s24 10.7 24 24zM432 0H592c26.5 0 48 21.5 48 48V176c0 26.5-21.5 48-48 48H544l-83.2 62.4c-2.4 1.8-5.7 2.1-8.4 .8s-4.4-4.1-4.4-7.2V224H432c-26.5 0-48-21.5-48-48V48c0-26.5 21.5-48 48-48z"/></svg>

<svg xmlns="http://www.w3.org/2000/svg" viewBox="0 0 640 512"><!--! Font Awesome Pro 6.1.2 by @fontawesome - https://fontawesome.com License - https://fontawesome.com/license (Commercial License) Copyright 2022 Fonticons, Inc. --><path d="M352 128C352 198.7 294.7 256 224 256C153.3 256 96 198.7 96 128C96 57.31 153.3 0 224 0C294.7 0 352 57.31 352 128zM0 482.3C0 401.3 54.02 332.9 128 311.2V370.3C104.9 377.2 88 398.6 88 424C88 454.9 113.1 480 144 480C174.9 480 200 454.9 200 424C200 398.6 183.1 377.2 160 370.3V304.9C166 304.3 172.1 304 178.3 304H269.7C275.9 304 281.1 304.3 288 304.9V362C260.4 369.1 240 394.2 240 424V464C240 472.8 247.2 480 256 480H272C280.8 480 288 472.8 288 464C288 455.2 280.8 448 272 448V424C272 406.3 286.3 392 304 392C321.7 392 336 406.3 336 424V448C327.2 448 320 455.2 320 464C320 472.8 327.2 480 336 480H352C360.8 480 368 472.8 368 464V424C368 394.2 347.6 369.1 320 362V311.2C393.1 332.9 448 401.3 448 482.3C448 498.7 434.7 512 418.3 512H29.71C13.3 512 0 498.7 0 482.3H0zM168 424C168 437.3 157.3 448 144 448C130.7 448 120 437.3 120 424C120 410.7 130.7 400 144 400C157.3 400 168 410.7 168 424zM592 0C618.5 0 640 21.49 640 48V176C640 202.5 618.5 224 592 224H544L460.8 286.4C458.4 288.2 455.1 288.5 452.4 287.2C449.7 285.8 448 283 448 280V224H432C405.5 224 384 202.5 384 176V48C384 21.49 405.5 0 432 0L592 0z"/></svg>
